X:1
T:Title
%%score { ( 1 3 5 ) | ( 2 4 ) }
L:1/8
Q:1/4=100
M:6/8
K:F
V:1 treble nm="Grand Piano"
V:3 treble 
V:5 treble 
V:2 bass 
V:4 bass 
V:1
 F>GA c2 d | A3 A3 | F>GA c2 d | e6 | G>AB [Ac]>[Bd][Be] | [Ad]3 A3 | c>dA c>dA | c3 .A3 | %8
w: I.~G.~Martin * * * *||||||||
 A>GF c2 d | A6 | A>GF c2 d | e6 | GAB [Ac][Bd][Be] |[M:15/16] [Af]3 [Ac]3/2- [Ac]3 | %14
w: ||||||
[M:3/4] [Ac]<[Ac] FA/A/- A[EG] | F6 |] %16
w: ||
V:2
 [F,A,C]>[F,B,C][F,CF] [F,A,F]2 [F,B,F] | [F,CF]3 [F,CF]3 | %2
 [F,A,]>[K:treble][F,B,F][F,CF] [A,CF]2 [_A,CF] | [G,G]3 z3 | %4
 [B,CE]>[A,CF][G,CG][K:bass] [C,C]>[C,C][C,C] | [F,C]3 [F,CF]3 | %6
 [F,A,F]>[F,B,F][F,CF] [^F,A,_E]>[F,A,E][F,CE] | .[G,CE]3 C,3 | %8
 [F,CF]>[F,B,F][F,A,] [F,A,F]2 [F,B,F] | .[CF]3 z3 | %10
 [F,CF]>[F,B,F][F,A,][K:treble] [A,CF]2 [_A,CF] | .[G,CE]3 [C,C]2 [C,C] | %12
 [B,CE][A,CF][G,CG][K:bass] [C,C][C,C][C,C] |[M:15/16] [F,C]3 [F,F]3/2- [F,F]3 | %14
[M:3/4][K:treble] [F,F]<[F,F] [A,C][CF]/[CF]/- [CF][K:bass][C,B,] | [F,A,]6 |] %16
V:3
 x6 | x6 | x6 | z3 .B3 | x6 | x6 | x6 | z BG [Cc]-[CGc-][Cc] | x6 | z3 F3 | x6 | z GA BAG | x6 | %13
[M:15/16] x15/2 |[M:3/4] x6 | x6 |] %16
V:4
 x6 | x6 | x3/2[K:treble] x9/2 | C3- [C,C]3 | x3[K:bass] x3 | x6 | x6 | x6 | x6 | F,6 | %10
 x3[K:treble] x3 | x6 | x3[K:bass] x3 |[M:15/16] x15/2 |[M:3/4][K:treble] x5[K:bass] x | x6 |] %16
V:5
 x6 | x6 | x6 | x6 | x6 | x6 | x6 | x6 | x6 | z z/ =B,/C z ED | x6 | x6 | x6 |[M:15/16] x15/2 | %14
[M:3/4] x6 | x6 |] %16

